assets/icons/calendar/_.svg

<?xml version="1.0" encoding="UTF-8" standalone="no"?>
<svg viewBox="0 0 24 24" height="24" id="svg7384" version="1.1" width="24" sodipodi:docname="calendar.svg" inkscape:version="1.1 (ce6663b3b7, 2021-05-25)"
   xmlns:inkscape="http://www.inkscape.org/namespaces/inkscape"
   xmlns:sodipodi="http://sodipodi.sourceforge.net/DTD/sodipodi-0.dtd"
   xmlns="http://www.w3.org/2000/svg"
   xmlns:svg="http://www.w3.org/2000/svg"
   xmlns:rdf="http://www.w3.org/1999/02/22-rdf-syntax-ns#"
   xmlns:cc="http://creativecommons.org/ns#"
   xmlns:dc="http://purl.org/dc/elements/1.1/">
   <sodipodi:namedview id="namedview21" pagecolor="#ffffff" bordercolor="#666666" borderopacity="1.0" inkscape:pageshadow="2" inkscape:pageopacity="0.0" inkscape:pagecheckerboard="0" showgrid="true" inkscape:snap-page="true" inkscape:zoom="16" inkscape:cx="38.40625" inkscape:cy="14.0625" inkscape:window-width="1920" inkscape:window-height="1043" inkscape:window-x="1920" inkscape:window-y="0" inkscape:window-maximized="1" inkscape:current-layer="svg7384">
      <inkscape:grid type="xygrid" id="grid22" spacingx="1" spacingy="1" empspacing="5" />
      <inkscape:grid type="xygrid" id="grid839" dotted="true" spacingx="0.5" spacingy="0.5" empspacing="10" />
   </sodipodi:namedview>
   <metadata id="metadata20854">
      <rdf:RDF>
         <cc:Work rdf:about="">
            <dc:format>image/svg+xml</dc:format>
            <dc:type rdf:resource="http://purl.org/dc/dcmitype/StillImage" />
         </cc:Work>
      </rdf:RDF>
   </metadata>
   <defs id="defs7386">
      <linearGradient id="linearGradient5606" inkscape:swatch="solid">
         <stop id="stop5608" offset="0" style="stop-color:#000000;stop-opacity:1;" />
      </linearGradient>
      <linearGradient id="linearGradient4526" inkscape:swatch="solid">
         <stop id="stop4528" offset="0" style="stop-color:#ffffff;stop-opacity:1;" />
      </linearGradient>
      <linearGradient id="linearGradient3600-4" inkscape:swatch="gradient">
         <stop id="stop3602-7" offset="0" style="stop-color:#f4f4f4;stop-opacity:1" />
         <stop id="stop3604-6" offset="1" style="stop-color:#dbdbdb;stop-opacity:1" />
      </linearGradient>
   </defs>
   <path id="path874" style="color:#000000;fill:#808080;-inkscape-stroke:none;fill-opacity:1" d="m 8,2 v 1 h 1 v -1 z m 1,1 v 1 h -1 v -1 h -1 c -1.0416656,0 -1.9983046,0.1146077 -2.7578125,0.5703125 -0.7595079,0.4557048 -1.2421875,1.3046886 -1.2421875,2.4296875 v 4 8 c 0,0.140625 0.0068,0.276433 0.021484,0.408203 0.014682,0.13177 0.037847,0.260355 0.066406,0.382813 0.028559,0.122457 0.063836,0.238875 0.1054688,0.351562 0.041633,0.112687 0.088676,0.22176 0.1425781,0.324219 0.053902,0.102458 0.1143201,0.199244 0.1796875,0.291015 0.065367,0.09177 0.1368621,0.177186 0.2128906,0.257813 0.076029,0.08063 0.156302,0.155585 0.2421875,0.224609 0.085886,0.06902 0.1765459,0.132491 0.2714844,0.189454 0.7595079,0.455704 1.7161469,0.570312 2.7578125,0.570312 h 10 c 1.041666,0 1.998305,-0.11461 2.757812,-0.570312 0.09494,-0.05696 0.185599,-0.12043 0.271485,-0.189454 0.08589,-0.06902 0.166159,-0.143982 0.242187,-0.224609 0.07603,-0.08063 0.147524,-0.166041 0.212891,-0.257813 0.06537,-0.09177 0.125785,-0.188557 0.179687,-0.291015 0.0539,-0.102459 0.100946,-0.211532 0.142579,-0.324219 0.04163,-0.112687 0.07691,-0.229105 0.105468,-0.351562 0.02856,-0.122458 0.05172,-0.251043 0.06641,-0.382813 0.01468,-0.13177 0.02148,-0.267578 0.02148,-0.408203 v -8 -4 c 0,-1.1249989 -0.482678,-1.9739827 -1.242188,-2.4296875 -0.759506,-0.4557048 -1.716146,-0.5703125 -2.757812,-0.5703125 h -1 v 1 h -1 v -1 z m 6,0 h 1 v -1 h -1 z m -8,5 h 10 c 0.958332,0 1.751697,0.135393 2.242188,0.4296875 0.49049,0.2942945 0.757812,0.6953134 0.757812,1.5703125 v 8 c 0,0.874999 -0.267322,1.276018 -0.757812,1.570312 -0.490491,0.294295 -1.283856,0.429688 -2.242188,0.429688 h -10 c -0.9583324,0 -1.7516967,-0.135393 -2.2421875,-0.429688 -0.4904908,-0.294294 -0.7578125,-0.695313 -0.7578125,-1.570312 v -8 c 0,-0.8749991 0.2673217,-1.276018 0.7578125,-1.5703125 0.4904908,-0.2942945 1.2838551,-0.4296875 2.2421875,-0.4296875 z" sodipodi:nodetypes="cccccccccssscsssssssssssssssssscscsssccccccccccsssssssssssss" />
</svg>

<svg height="24" width="24" xmlns="http://www.w3.org/2000/svg"><path style="color:#000;fill:gray;-inkscape-stroke:none;fill-opacity:1" d="M8 2v1h1V2zm1 1v1H8V3H7c-1.042 0-1.998.115-2.758.57C3.482 4.026 3 4.875 3 6v12a3.299 3.299 0 0 0 .193 1.143 2.54 2.54 0 0 0 .535.873 2.394 2.394 0 0 0 .514.414c.76.455 1.716.57 2.758.57h10c1.042 0 1.998-.115 2.758-.57a2.426 2.426 0 0 0 .906-.963 2.932 2.932 0 0 0 .248-.676A3.3 3.3 0 0 0 21 18V6c0-1.125-.483-1.974-1.242-2.43C18.998 3.115 18.042 3 17 3h-1v1h-1V3zm6 0h1V2h-1zM7 8h10c.958 0 1.752.135 2.242.43.49.294.758.695.758 1.57v8c0 .875-.267 1.276-.758 1.57-.49.295-1.284.43-2.242.43H7c-.958 0-1.752-.135-2.242-.43C4.268 19.276 4 18.875 4 18v-8c0-.875.267-1.276.758-1.57C5.248 8.135 6.042 8 7 8z"/></svg>
